X: 21234
T: INCH LAGGAN
O: North Highland melody.
Q: "Moderate."
%R: jig
B: W. Hamilton "Universal Tune-Book" Vol. 2 Glasgow 1846 p.123 #4
S: http://s3-eu-west-1.amazonaws.com/itma.dl.printmaterial/book_pdfs/hamiltonvol2web.pdf
Z: 2016 John Chambers <jc:trillian.mit.edu>
M: 6/8
L: 1/8
K: Bm
% - - - - - - - - - - - - - - - - - - - - - - - - -
[|\
B2B d2e | c2B c2e | B2B f2f | g>fe f2B |\
d2d e2e | c2c f2f | B2A G2F | d2f edc |\
B2B F2F | E2E B2B | A2G F2F | d2f edc |]
% - - - - - - - - - - - - - - - - - - - - - - - - -

%%sep 1 1 500
%%sep 1 1 500

